X:233
T:The Dead Horse
M:C|
L:1/8
Q:1/4=3D120
K:F
F2F2|\
C2(DE) F2G2|A2A2 G2FG|A2 G4 FG|A2 G4 G2|
C2(DE) F2B2|A2(AG) F2B2|A4 G4 |F6 ||
